polaris-icons/icons/new-icons/AddMajor.svg

<svg width="20" height="20" viewBox="0 0 20 20" fill="none" xmlns="http://www.w3.org/2000/svg">
<path d="M10.75 6.75C10.75 6.33579 10.4142 6 10 6C9.58579 6 9.25 6.33579 9.25 6.75L9.25 9.25H6.75C6.33579 9.25 6 9.58579 6 10C6 10.4142 6.33579 10.75 6.75 10.75H9.25L9.25 13.25C9.25 13.6642 9.58579 14 10 14C10.4142 14 10.75 13.6642 10.75 13.25V10.75H13.25C13.6642 10.75 14 10.4142 14 10C14 9.58579 13.6642 9.25 13.25 9.25H10.75V6.75Z" fill="#4A4A4A"/>
</svg>

<svg viewBox="0 0 20 20" xmlns="http://www.w3.org/2000/svg"><path d="M10.75 6.75a.75.75 0 0 0-1.5 0v2.5h-2.5a.75.75 0 0 0 0 1.5h2.5v2.5a.75.75 0 0 0 1.5 0v-2.5h2.5a.75.75 0 0 0 0-1.5h-2.5v-2.5Z" fill="#5C5F62"/></svg>
